X: 17
T:Connaughtman's Rambles, The
T:Gathering Dilisc
M:6/8
R:jig
K:Bm
FAA dAA|BAB dAG|FAA dfe|dBB BAG|
FAA dAA|BAB def|gfe f2e|1 dBB BAG:|2 dBB B3||
|:fbb faa|fef def|fbb faa|fed ~e3|
fbb faa|~f3 def|gfe f2e|1 dBB ~B3:|2 dBB BAG||

